X:55
T: Wiedersehen an der Bahre
N: Q0056K
O: Mitteleuropa, Deutschland (BRD) , Hessen, Kurhessen
R: Ballade, Abschied, Enttaeuschung, Tod, Selbstmord
M: 6/8
L: 1/16
K: F
F2 | F4A2c4A2 | A4G2G4
G2 | G4d2c4B2 | B6A4
c2 | c4egg4B2 | A4cff4
f2 | e4d2c4B2 | B6A4
c2 | c4egg4B2 | A4cff4
f2 | e4d2c4B2 | B6A4

